!!!COM: Josquin Des Pres
!!!OTL: Missa Malheur me bat
!!!ONB: Cantus firmus Canon
!!!ONB: Double canon
!!!YOR: From New Josquin Edition, Volume 9: Masses Based on Secular Polyphonic Songs
!!!YOR: Barton Hudson (editor).
!!!YOR: Utrecht: Vereniging voor Nederlandse Musiekgeschiedenis, 1987; pp. 38-42.
**kern	**kern	**kern	**kern	**kern	**kern
*guida	*conseq	*CF	*conseq	*guida	*CF
*k[]	*k[]	*k[]	*k[]	*k[]	*k[]
*M4/2	*M4/2	*M4/2	*M4/2	*M4/2	*M4/2
=1-	=1-	=1-	=1-	=1-	=1-
1E	2r	[0E	0r	0r	0r
.	1E	.	.	.	.
2G	.	.	.	.	.
2E	2G	.	.	.	.
=2	=2	=2	=2	=2	=2
2.G	2E	0E]	0r	0r	0r
.	2.G	.	.	.	.
4A	.	.	.	.	.
2B	.	.	.	.	.
.	4A	.	.	.	.
2E	2B	.	.	.	.
=3	=3	=3	=3	=3	=3
0r	2E	0B	2r	2E	0r
.	2r	.	2E	2G	.
.	1r	.	2G	2E	.
.	.	.	2E	[2G	.
=4	=4	=4	=4	=4	=4
0r	0r	0B	2.G	4G]	0r
.	.	.	.	4A	.
.	.	.	.	2B	.
.	.	.	4A	.	.
.	.	.	2B	1E	.
.	.	.	[2E	.	.
=5	=5	=5	=5	=5	=5
4AA	2r	0c	2E]	0r	[0e
4BB	.	.	.	.	.
4C	4AA	.	2r	.	.
4D	4BB	.	.	.	.
2E	4C	.	1r	.	.
.	4D	.	.	.	.
[2AA	2E	.	.	.	.
=6	=6	=6	=6	=6	=6
4AA]	2.AA	0c	0r	0r	0e]
4BB	.	.	.	.	.
4C	.	.	.	.	.
4D	4BB	.	.	.	.
1E	4C	.	.	.	.
.	4D	.	.	.	.
.	[2E	.	.	.	.
=7	=7	=7	=7	=7	=7
0r	2E]	0B	2r	2.G	0b
.	2r	.	2.G	.	.
.	.	.	.	4A	.
.	1r	.	.	2B	.
.	.	.	4A	.	.
.	.	.	2B	[2E	.
=8	=8	=8	=8	=8	=8
0r	0r	0G	2.E	4E]	0b
.	.	.	.	4F	.
.	.	.	.	2G	.
.	.	.	4F	.	.
.	.	.	2G	2E	.
.	.	.	2E	2e	.
=9	=9	=9	=9	=9	=9
2.AA	2r	0A	2e	2.c	0cc
.	2.AA	.	2.c	.	.
4BB	.	.	.	4d	.
2C	.	.	.	1e	.
.	4BB	.	4d	.	.
[2AA	2C	.	[2e	.	.
=10	=10	=10	=10	=10	=10
4AA]	2.AA	0A	2e]	2r	0cc
4GG	.	.	.	.	.
4AA	.	.	2r	2.e	.
4BB	4GG	.	.	.	.
4C	4AA	.	2.e	.	.
4D	4BB	.	.	4e	.
[2E	4C	.	.	2e	.
.	4D	.	4e	.	.
=11	=11	=11	=11	=11	=11
4E]	2.E	0G	2e	1E	0b
4F	.	.	.	.	.
2G	.	.	1E	.	.
.	4F	.	.	.	.
4E	2G	.	.	1e	.
4F	.	.	.	.	.
2G	4E	.	[2e	.	.
.	4F	.	.	.	.
=12	=12	=12	=12	=12	=12
1C	2G	0E	2e]	2e	0g
.	1C	.	2e	2.e	.
1r	.	.	2.e	.	.
.	.	.	.	4d	.
.	2r	.	.	4c	.
.	.	.	4d	4B	.
=13	=13	=13	=13	=13	=13
0r	0r	0F	4c	2.A	0a
.	.	.	4B	.	.
.	.	.	2.A	.	.
.	.	.	.	4B	.
.	.	.	.	2c	.
.	.	.	4B	.	.
.	.	.	2c	2A	.
=14	=14	=14	=14	=14	=14
0r	0r	0F	2A	2c	0a
.	.	.	2c	2A	.
.	.	.	2A	2.c	.
.	.	.	[2c	.	.
.	.	.	.	4d	.
=15	=15	=15	=15	=15	=15
0r	0r	2.E	4c]	1e	2.g
.	.	.	4d	.	.
.	.	.	1e	.	.
.	.	4F	.	.	4a
.	.	2G	.	1r	2b
.	.	[2A	2r	.	[2e
=16	=16	=16	=16	=16	=16
0r	0r	4A]	0r	0r	4e]
.	.	4G	.	.	4f
.	.	2E	.	.	2g
.	.	2F	.	.	2a
.	.	2G	.	.	2e
=17	=17	=17	=17	=17	=17
0r	0r	2A	1r	1r	2f
.	.	2E	.	.	1e
.	.	1F	2r	2.A	.
.	.	.	[2A	.	2d
.	.	.	.	4B	.
=18	=18	=18	=18	=18	=18
2.AA	2r	[0E	4A]	4c	0e
.	.	.	4B	4d	.
.	2.AA	.	4c	1e	.
4BB	.	.	4d	.	.
4C	.	.	1e	.	.
4D	4BB	.	.	.	.
[2E	4C	.	.	[2C	.
.	4D	.	.	.	.
=19	=19	=19	=19	=19	=19
2E]	1E	0E]	2.C	4C]	0r
.	.	.	.	4D	.
2.C	.	.	.	4E	.
.	.	.	4D	4F	.
.	2.C	.	4E	1G	.
4D	.	.	4F	.	.
4E	.	.	[2G	.	.
4F	4D	.	.	.	.
=20	=20	=20	=20	=20	=20
1G	4E	0r	2G]	2.E	0b
.	4F	.	.	.	.
.	1G	.	2.E	.	.
.	.	.	.	4F	.
2.E	.	.	.	4G	.
.	.	.	4F	4A	.
.	[2E	.	4G	2B	.
4F	.	.	4A	.	.
=21	=21	=21	=21	=21	=21
4G	4E]	0e	2B	1E	0g
4A	4F	.	.	.	.
2B	4G	.	1E	.	.
.	4A	.	.	.	.
2E	2B	.	.	1r	.
2r	2E	.	2r	.	.
!! Alla breve.
=22	=22	=22	=22	=22	=22
0r	0r	1E	0r	0r	1a
.	.	2F	.	.	1b
.	.	[2G	.	.	.
=23	=23	=23	=23	=23	=23
0r	0r	2G]	0r	0r	1cc
.	.	2C	.	.	.
.	.	1D	.	.	2b
.	.	.	.	.	[2g
=24	=24	=24	=24	=24	=24
0r	0r	1E	0r	0r	2g]
.	.	.	.	.	2a
.	.	2B	.	.	1b
.	.	[2G	.	.	.
=25	=25	=25	=25	=25	=25
0r	0r	2G]	0r	0r	1e
.	.	2A	.	.	.
.	.	1B	.	.	2r
.	.	.	.	.	[2b
=26	=26	=26	=26	=26	=26
0r	0r	2E	0r	0r	2b]
.	.	1e	.	.	2cc
.	.	.	.	.	2b
.	.	4d	.	.	[2ee
.	.	4c	.	.	.
=27	=27	=27	=27	=27	=27
0r	0r	4d	0r	0r	2ee]
.	.	4c	.	.	.
.	.	4B	.	.	4dd
.	.	4A	.	.	4cc
.	.	2.G	.	.	4dd
.	.	.	.	.	4cc
.	.	.	.	.	4b
.	.	4A	.	.	4a
=28	=28	=28	=28	=28	=28
0r	0r	2B	2r	2.E	2.g
.	.	2c	2.E	.	.
.	.	.	.	4F	4a
.	.	2B	.	2G	2b
.	.	.	4F	.	.
.	.	[2e	2G	2c	[2cc
=29	=29	=29	=29	=29	=29
0r	0r	4e]	2C	2G	4cc]
.	.	4d	.	.	4b
.	.	2B	2G	2r	1b
.	.	1c	1r	1r	.
.	.	.	.	.	2a
!! Common time.
=30	=30	=30	=30	=30	=30
2.E	2r	1B	0r	0r	1b
.	2.E	.	.	.	.
4F	.	.	.	.	.
2G	.	[1e	.	.	[1cc
.	4F	.	.	.	.
2C	2e	.	.	.	.
=31	=31	=31	=31	=31	=31
2G	2C	2e]	0r	0r	2cc]
2r	2G	2d	.	.	2b
4F	2r	1f	.	.	[1dd
4G	.	.	.	.	.
4A	4F	.	.	.	.
4B	4G	.	.	.	.
=32	=32	=32	=32	=32	=32
2.c	4A	1e	2r	4c	2dd]
.	4B	.	.	4d	.
.	2.c	.	4c	4e	2cc
4C	.	.	4d	4f	.
2C	.	1c	4e	2.g	[1cc
.	4C	.	4f	.	.
2r	2C	.	[2g	.	.
.	.	.	.	4G	.
=33	=33	=33	=33	=33	=33
0r	0r	0d	4g]	2G	1cc]
.	.	.	4G	.	.
.	.	.	2G	2g	.
.	.	.	2g	2G	1b
.	.	.	2G	2g	.
!! Alla breve.
=34	=34	=34	=34	=34	=34
0r	0r	2c	2g	2e	2cc
.	.	1c	2e	2r	1a
.	.	.	1r	1r	.
.	.	2B	.	.	4g
.	.	.	.	.	4f
=35	=35	=35	=35	=35	=35
0r	0r	2c	0r	0r	1e
.	.	1A	.	.	.
.	.	.	.	.	2f
.	.	2G	.	.	[2e
=36	=36	=36	=36	=36	=36
0r	0r	2A	0r	0r	2e]
.	.	2c	.	.	1a
.	.	1B	.	.	.
.	.	.	.	.	2g
=37	=37	=37	=37	=37	=37
0r	0r	2a	0r	0r	2a
.	.	1e	.	.	2cc
.	.	.	.	.	1b
.	.	2d	.	.	.
=38	=38	=38	=38	=38	=38
0r	0r	2c	0r	0r	2a
.	.	1e	.	.	1cc
.	.	2d	.	.	4b
.	.	.	.	.	4a
=39	=39	=39	=39	=39	=39
2.C	2r	1.e	0r	0r	0g
.	2.C	.	.	.	.
4D	.	.	.	.	.
4E	.	.	.	.	.
4F	4D	.	.	.	.
2G	4E	4d	.	.	.
.	4F	4c	.	.	.
=40	=40	=40	=40	=40	=40
0r	2G	2B	2r	2.E	1r
.	2r	2c	2.E	.	.
.	.	.	.	4F	.
.	1r	2B	.	4G	1g
.	.	.	4F	4A	.
.	.	[2G	4G	2B	.
.	.	.	4A	.	.
=41	=41	=41	=41	=41	=41
4E	2r	4G]	2B	1r	1g
4F	.	4A	.	.	.
4G	4E	2B	1r	.	.
4A	4F	.	.	.	.
2B	4G	2E	.	2.E	1g
.	4A	.	.	.	.
2E	2B	[2e	[2E	.	.
.	.	.	.	4F	.
=42	=42	=42	=42	=42	=42
2r	2E	2e]	4E]	4G	0g
.	.	.	4F	4A	.
2E	2r	4d	4G	2B	.
.	.	4c	4A	.	.
2E	2E	1B	2B	2E	.
2E	2E	.	2E	2e	.
=43	=43	=43	=43	=43	=43
1AA	2E	2A	2e	2c	0a
.	1AA	1c	2c	2r	.
1r	.	.	1r	1r	.
.	2r	2d	.	.	.
=44	=44	=44	=44	=44	=44
2.E	2r	2.e	0r	0r	1g
.	2.E	.	.	.	.
4F	.	4d	.	.	.
2G	.	2B	.	.	1g
.	4F	.	.	.	.
4C	2G	[2c	.	.	.
4D	.	.	.	.	.
=45	=45	=45	=45	=45	=45
4E	4C	2c]	1r	1r	1e
4F	4D	.	.	.	.
2G	4E	4B	.	.	.
.	4F	4A	.	.	.
1r	2G	1B	2r	2.G	2d
.	2r	.	[2G	.	[2g
.	.	.	.	4A	.
=46	=46	=46	=46	=46	=46
0r	0r	1E	4G]	2B	4g]
.	.	.	4A	.	4f
.	.	.	2B	4E	1e
.	.	.	.	4F	.
.	.	1E	4E	4G	.
.	.	.	4F	4A	.
.	.	.	4G	2B	4d
.	.	.	4A	.	4c
=47	=47	=47	=47	=47	=47
0r	0r	1E	2B	1r	2B
.	.	.	2r	.	1e
.	.	1F	2r	2.A	.
.	.	.	[2A	.	2d
.	.	.	.	4B	.
!! Common time.
=48	=48	=48	=48	=48	=48
2.AA	2r	0E	4A]	4c	0e
.	.	.	4B	4d	.
.	2.AA	.	4c	2e	.
4AA	.	.	4d	.	.
2AA	.	.	2e	2.c	.
.	4AA	.	.	.	.
2A	2AA	.	[2c	.	.
.	.	.	.	4A	.
=49	=49	=49	=49	=49	=49
2F	2A	1r	4c]	2.A	0f
.	.	.	4A	.	.
4D	2F	.	2.A	.	.
4E	.	.	.	4F	.
4F	4D	[1A	.	2F	.
4G	4E	.	4F	.	.
2A	4F	.	2F	2r	.
.	4G	.	.	.	.
=50	=50	=50	=50	=50	=50
4AA	2A	1A]	0r	0r	0e
4BB	.	.	.	.	.
4C	4AA	.	.	.	.
4D	4BB	.	.	.	.
1E	4C	1G	.	.	.
.	4D	.	.	.	.
.	[2E	.	.	.	.
=51	=51	=51	=51	=51	=51
1AA	2E]	0A	2r	2c	1r
.	1AA	.	2c	4A	.
.	.	.	.	4B	.
1r	.	.	4A	4c	[1a
.	.	.	4B	4d	.
.	2r	.	4c	2e	.
.	.	.	4d	.	.
=52	=52	=52	=52	=52	=52
2.E	2r	0B	2e	2E	1a]
.	2.E	.	2E	2G	.
4E	.	.	.	.	.
2E	.	.	2G	2E	1g
.	4E	.	.	.	.
2E	2E	.	2E	2e	.
=53	=53	=53	=53	=53	=53
2.C	2E	0c	2e	2r	0a
.	2.C	.	2r	2.e	.
4AA	.	.	.	.	.
2AA	.	.	2.e	.	.
.	4AA	.	.	4e	.
2r	2AA	.	.	2e	.
.	.	.	4e	.	.
=54	=54	=54	=54	=54	=54
2.E	2r	1B	2e	2E	0b
.	2.E	.	2E	2G	.
4E	.	.	.	.	.
2E	.	1G	2G	2E	.
.	4E	.	.	.	.
2E	2E	.	2E	[2e	.
=55	=55	=55	=55	=55	=55
2.C	2E	0A	2.e	4e]	0cc
.	.	.	.	4e	.
.	2.C	.	.	2e	.
4AA	.	.	4e	.	.
2AA	.	.	2e	2c	.
.	4AA	.	.	.	.
2r	2AA	.	2c	2r	.
=56	=56	=56	=56	=56	=56
0r	0r	2G	0r	0r	2b
.	.	1G	.	.	2g
.	.	.	.	.	1a
.	.	2F#	.	.	.
=57	=57	=57	=57	=57	=57
1r	1r	1G	0r	0r	2g
.	.	.	.	.	1g
1D	2r	1A	.	.	.
.	[2D	.	.	.	2f#
=58	=58	=58	=58	=58	=58
2GG	2D]	1G	0r	0r	0g
2G	2GG	.	.	.	.
2E	2G	2r	.	.	.
2C	2E	[2c	.	.	.
=59	=59	=59	=59	=59	=59
1G	2C	2c]	1r	1r	1r
.	1G	2d	.	.	.
1C	.	1e	2r	2.c	1g
.	[2C	.	[2c	.	.
.	.	.	.	4c	.
=60	=60	=60	=60	=60	=60
0r	2C]	2e	4c]	2c	2g
.	.	.	4c	.	.
.	2r	1f	2c	4F	1a
.	.	.	.	4G	.
.	1r	.	4F	4A	.
.	.	.	4G	4B	.
.	.	4e	4A	2c	4g
.	.	4d	4B	.	4f
=61	=61	=61	=61	=61	=61
0r	0r	1.c	2c	0r	1.e
.	.	.	2r	.	.
.	.	.	1r	.	.
.	.	[2d	.	.	[2f
=62	=62	=62	=62	=62	=62
0r	0r	[4d	0r	0r	[4f
.	.	4c	.	.	4e
.	.	2A	.	.	2c
.	.	1B	.	.	1d
=63	=63	=63	=63	=63	=63
2.C	2r	0c	1r	1r	2.e
.	2.C	.	.	.	.
4C	.	.	.	.	4f
2C	.	.	2r	2.c	2g
.	4C	.	.	.	.
2C	2C	.	[2c	.	2a
.	.	.	.	4c	.
=64	=64	=64	=64	=64	=64
0r	2C	1r	4c]	2c	2g
.	.	.	4c	.	.
.	2r	.	2c	4c	1cc
.	.	.	.	4d	.
.	1r	1c	4c	4e	.
.	.	.	4d	4f	.
.	.	.	4e	2g	4b
.	.	.	4f	.	4a
=65	=65	=65	=65	=65	=65
1r	1r	1d	2g	2G	2b
.	.	.	2G	2.g	2dd
2.C	2r	1e	2.g	.	2cc
.	.	.	.	4g	.
.	[2C	.	.	2g	[2ee
4C	.	.	4g	.	.
=66	=66	=66	=66	=66	=66
2C	4C]	2.c	2g	2g	4ee]
.	4C	.	.	.	4dd
2C	2C	.	2g	2r	2.cc
.	.	4d	.	.	.
1r	2C	2e	1r	1r	.
.	.	.	.	.	4b
.	2r	[2f	.	.	[2dd
=67	=67	=67	=67	=67	=67
1r	1r	4f]	0r	0r	4dd]
.	.	4e	.	.	4cc
.	.	4d	.	.	4b
.	.	4c	.	.	4a
2GG	2r	1d	.	.	1b
2G	2GG	.	.	.	.
=68	=68	=68	=68	=68	=68
4C	2G	2c	2r	2.g	1cc
4D	.	.	.	.	.
4E	4C	1c	2.g	.	.
4F	4D	.	.	4g	.
1G	4E	.	.	2g	1r
.	4F	.	4g	.	.
.	[2G	2B	2g	2g	.
=69	=69	=69	=69	=69	=69
2C	2G]	1c	2g	0r	1cc
1G	2C	.	2r	.	.
.	1G	1r	1r	.	2dd
[2C	.	.	.	.	[2ee
=70	=70	=70	=70	=70	=70
2C]	1C	1c	2r	2.g	2ee]
1G	.	.	2.g	.	4dd
.	.	.	.	4g	4cc
.	1G	2d	.	2g	2b
.	.	.	4g	.	.
2C	.	[2e	2g	2g	[2cc
=71	=71	=71	=71	=71	=71
2.E	2C	2e]	2g	2.e	2cc]
.	2.E	4d	2.e	.	4b
4E	.	4c	.	4e	4a
2E	.	2B	.	2e	2g
.	4E	.	4e	.	.
2AA	2E	[2c	2e	2e	[2a
=72	=72	=72	=72	=72	=72
2.C	2AA	2c]	2e	1c	2a]
.	2.C	4b	1c	.	4g
4C	.	4a	.	.	4f
2C	.	2G	.	1c	2e
.	4C	.	.	.	.
2FF	2C	[2A	[2c	.	[2f
=73	=73	=73	=73	=73	=73
2C	2FF	4A]	2c]	1r	4f]
.	.	4G	.	.	4e
2r	2C	2E	2r	.	1e
1r	1r	1F	2r	2.A	.
.	.	.	[2a	.	2d
.	.	.	.	4B	.
=74	=74	=74	=74	=74	=74
2.AA	2r	0E	4a]	2c	0e
.	.	.	4b	.	.
.	2.AA	.	2c	2A	.
4BB	.	.	.	.	.
2C	.	.	2A	2e	.
.	4BB	.	.	.	.
2AA	2C	.	2e	2r	.
=75	=75	=75	=75	=75	=75
1E	2AA	0r	2r	2.E	0r
.	1E	.	2.E	.	.
.	.	.	.	4F	.
1r	.	.	.	2G	.
.	.	.	4F	.	.
.	2r	.	2G	2C	.
=76	=76	=76	=76	=76	=76
2.E	2r	0r	2C	1G	0r
.	2.E	.	1G	.	.
4F	.	.	.	.	.
2G	.	.	.	1r	.
.	4F	.	.	.	.
2C	2G	.	2r	.	.
=77	=77	=77	=77	=77	=77
[0G	2C	0r	2r	2.g	0r
.	[1.G	.	2.G	.	.
.	.	.	.	4A	.
.	.	.	.	2B	.
.	.	.	4A	.	.
.	.	.	2B	2E	.
=78	=78	=78	=78	=78	=78
0G]	0G]	0r	2E	0b	0r
.	.	.	1.B	.	.
==	==	==	==	==	==
*-	*-	*-	*-	*-	*-
!!!CDT: ~1440///-1521//
!!!OCY: ?Italia
!!!ODT: ?
!!!AFR: cantus firmus mass
!!!AST: polyphony
!!!AMT: simple duple
!!!AIN: vox
!!!YEP: David Huron and Denis Collins
!!!YEN: Canada
!!!EEV: 1.0
!!!RDT: 1995 June 9
!!!YED: 1995 August 31
